myvideo.svg

<svg viewBox="0 0 24 24" xmlns="http://www.w3.org/2000/svg"><path d="M0.179753 12.1665C0.134351 12.4214 0.0936886 12.6621 0.0573533 12.8874C0.0212242 13.1125 0.00212929 13.2695 1.77636e-15 13.3584C0.00116767 13.4847 0.0454019 13.6005 0.132909 13.7047C0.22069 13.8093 0.345082 13.8649 0.50574 13.8711C0.741266 13.8644 0.899589 13.7918 0.980914 13.6521C1.06217 13.513 1.11245 13.3489 1.13154 13.1585L1.45121 11.0543L1.4644 11.0543L2.19069 13.3852C2.24159 13.5569 2.31289 13.6812 2.40472 13.7578C2.49655 13.8347 2.6228 13.8725 2.78373 13.8711C2.94466 13.8725 3.07091 13.8347 3.16247 13.7578C3.25437 13.6812 3.3256 13.5569 3.37657 13.3852L4.10279 11.0543L4.11591 11.0543L4.43592 13.1585C4.45481 13.3489 4.50502 13.513 4.58662 13.6521C4.66787 13.7918 4.8262 13.8644 5.06152 13.8711C5.22224 13.8649 5.34657 13.8093 5.43407 13.7047C5.52186 13.6005 5.56609 13.4847 5.56753 13.3584C5.56513 13.2695 5.54603 13.1125 5.5099 12.8874C5.47378 12.6621 5.43311 12.4214 5.38764 12.1665L4.96158 9.72916C4.90532 9.45324 4.80827 9.26909 4.67028 9.17719C4.53256 9.08515 4.39244 9.04284 4.24944 9.04978C4.07298 9.04861 3.93279 9.08591 3.82852 9.16236C3.72426 9.23915 3.63455 9.36306 3.55996 9.53422C3.48516 9.70546 3.40432 9.93247 3.31681 10.2151L2.79019 11.8466L2.777 11.8466L2.25065 10.2151C2.16315 9.93247 2.0821 9.70546 2.00723 9.53422C1.9327 9.36306 1.84321 9.23915 1.73894 9.16236C1.63467 9.08591 1.49435 9.04861 1.3181 9.04978C1.17509 9.04284 1.0347 9.08515 0.896704 9.17719C0.758987 9.26909 0.661864 9.45324 0.605679 9.72916L0.179753 12.1665ZM6.31362 14.271C6.25407 14.403 6.21032 14.5101 6.18209 14.5924C6.1544 14.6747 6.14046 14.7584 6.14046 14.8439C6.13854 14.9387 6.17762 15.0381 6.25723 15.1419C6.33684 15.2452 6.46878 15.3013 6.65321 15.3096C6.82685 15.3064 6.9511 15.2587 7.02624 15.1659C7.10132 15.0735 7.16595 14.9573 7.21946 14.8172L8.75763 11.2276C8.78606 11.1658 8.81375 11.0946 8.84081 11.0138C8.8676 10.9329 8.88195 10.8531 8.88387 10.775C8.88168 10.613 8.83298 10.4853 8.7375 10.3918C8.6421 10.2983 8.51317 10.2505 8.35148 10.2488C8.21095 10.2524 8.09734 10.3069 8.01094 10.4119C7.92446 10.5171 7.84938 10.6513 7.7853 10.8148L7.20607 12.2269L6.59338 10.6417C6.54317 10.5116 6.47387 10.4135 6.38437 10.3478C6.29542 10.2818 6.18737 10.2488 6.06058 10.2488C5.92595 10.25 5.80898 10.2926 5.71028 10.377C5.61144 10.4614 5.55937 10.5805 5.55463 10.735C5.55628 10.7967 5.57806 10.8844 5.61961 10.998C5.66117 11.1114 5.71289 11.2391 5.77436 11.3808L6.65987 13.4919L6.31362 14.271Z" fill="#f25923"/><path d="M10.8627 13.0786L10.8495 13.0786L9.54437 9.2494C9.52452 9.1858 9.4956 9.13682 9.45775 9.10221C9.41956 9.06773 9.37073 9.05028 9.31124 9.0498C9.23706 9.05097 9.17895 9.07198 9.13637 9.1132C9.09385 9.15427 9.07228 9.2086 9.07139 9.27626C9.07139 9.30208 9.07853 9.34179 9.09282 9.39529C9.10766 9.44866 9.13156 9.5201 9.1646 9.60911L10.5697 13.578C10.5918 13.6488 10.6243 13.7142 10.6678 13.775C10.7113 13.8354 10.774 13.8673 10.856 13.8711C10.9378 13.8673 11.0007 13.8354 11.0442 13.775C11.0878 13.7142 11.1203 13.6488 11.1422 13.578L12.5475 9.60911C12.5805 9.5201 12.6044 9.44866 12.6188 9.39529C12.6337 9.34179 12.6409 9.30208 12.6407 9.27626C12.6397 9.2086 12.6182 9.15427 12.5756 9.1132C12.5333 9.07198 12.4749 9.05097 12.401 9.0498C12.3413 9.05028 12.2924 9.06773 12.2545 9.10221C12.2165 9.13682 12.1878 9.1858 12.1679 9.2494L10.8627 13.0786ZM12.9248 9.37574C12.9272 9.46805 12.9592 9.54457 13.0205 9.60625C13.0816 9.66752 13.1586 9.69925 13.2509 9.70193C13.343 9.69925 13.4197 9.66752 13.481 9.60625C13.5427 9.54457 13.5745 9.46805 13.5769 9.37574C13.5745 9.28342 13.5427 9.20691 13.481 9.14543C13.4197 9.08396 13.343 9.05222 13.2509 9.04975C13.1586 9.05222 13.0816 9.08396 13.0205 9.14543C12.9592 9.20691 12.9272 9.28342 12.9248 9.37574M13.4901 10.5552C13.4896 10.4549 13.4689 10.3789 13.4279 10.327C13.3869 10.2751 13.3277 10.2491 13.2509 10.2488C13.174 10.2491 13.1149 10.2751 13.0739 10.327C13.0326 10.3789 13.0118 10.4549 13.0114 10.5552L13.0114 13.565C13.0118 13.665 13.0326 13.741 13.0739 13.7932C13.1149 13.8448 13.174 13.8707 13.2509 13.8711C13.3277 13.8707 13.3869 13.8448 13.4279 13.7932C13.4689 13.741 13.4896 13.665 13.4901 13.565L13.4901 10.5552ZM14.5714 12.0598C14.5704 11.839 14.6036 11.6214 14.6709 11.4064C14.7379 11.192 14.846 11.0131 14.9938 10.8701C15.142 10.7273 15.3368 10.6532 15.5777 10.6474C15.8245 10.6532 16.0215 10.7273 16.1683 10.8701C16.3147 11.0131 16.4198 11.192 16.4834 11.4064C16.5476 11.6214 16.5782 11.839 16.5767 12.0598C16.5782 12.2809 16.5476 12.499 16.4834 12.7132C16.4198 12.928 16.3147 13.1068 16.1683 13.2498C16.0215 13.3929 15.8245 13.4669 15.5777 13.4722C15.3301 13.4669 15.133 13.3929 14.9851 13.2498C14.8374 13.1068 14.7312 12.928 14.6667 12.7132C14.6016 12.499 14.57 12.2809 14.5714 12.0598M16.5767 10.7742L16.5571 10.7742C16.4218 10.5982 16.2739 10.4661 16.1127 10.3791C15.9522 10.2921 15.769 10.2486 15.5643 10.2488C15.2225 10.2545 14.9397 10.3449 14.7164 10.52C14.4926 10.6948 14.3261 10.9196 14.2166 11.1936C14.107 11.4677 14.0521 11.7567 14.0525 12.0598C14.0525 12.3972 14.109 12.7018 14.2214 12.974C14.3337 13.2461 14.5031 13.4627 14.7293 13.6238C14.9551 13.7851 15.2376 13.8673 15.5777 13.8711C15.7858 13.8707 15.9736 13.8267 16.1419 13.7381C16.3103 13.6497 16.4485 13.5191 16.5571 13.346L16.5767 13.346L16.5767 13.5655C16.5773 13.6655 16.5983 13.7415 16.6394 13.7932C16.6806 13.8447 16.7394 13.8707 16.8163 13.8711C16.8934 13.8707 16.9521 13.8447 16.9933 13.7932C17.0344 13.7415 17.0549 13.6655 17.0554 13.5655L17.0554 8.99642C17.0549 8.89648 17.0344 8.82045 16.9933 8.76831C16.9521 8.71666 16.8934 8.69035 16.8163 8.69035C16.7394 8.69035 16.6806 8.71666 16.6394 8.76831C16.5983 8.82045 16.5773 8.89648 16.5767 8.99642L16.5767 10.7742ZM18.1383 11.8738C18.145 11.672 18.1866 11.4782 18.2627 11.2924C18.3393 11.1065 18.4501 10.9535 18.5959 10.8335C18.7418 10.7137 18.9222 10.6518 19.1379 10.6475C19.3531 10.6518 19.5339 10.7137 19.6798 10.8335C19.8256 10.9535 19.9366 11.1065 20.0132 11.2924C20.0891 11.4782 20.1303 11.672 20.1374 11.8738L18.1383 11.8738ZM20.3302 12.2727C20.469 12.2684 20.5587 12.2355 20.6005 12.1737C20.6415 12.1126 20.6603 12.0475 20.6559 11.98C20.6559 11.6777 20.599 11.3959 20.4861 11.1346C20.3733 10.8732 20.2044 10.6613 19.9806 10.4991C19.7567 10.337 19.478 10.2536 19.1445 10.2488C18.8113 10.2545 18.531 10.3449 18.3047 10.52C18.0791 10.6948 17.9083 10.9196 17.793 11.1936C17.6777 11.468 17.6199 11.7567 17.6199 12.0598C17.6185 12.3631 17.6733 12.652 17.7839 12.9259C17.8948 13.2006 18.0684 13.4248 18.3047 13.6C18.5415 13.775 18.8481 13.8653 19.2244 13.8711C19.5014 13.8663 19.7434 13.8205 19.949 13.7344C20.1547 13.6473 20.3149 13.5488 20.4293 13.4382C20.5431 13.3284 20.601 13.235 20.6028 13.1589C20.6018 13.0676 20.5808 13.0054 20.5397 12.9725C20.4985 12.9394 20.4446 12.9242 20.3766 12.9259C20.3049 12.9328 20.2249 12.9801 20.1374 13.0676C20.05 13.1556 19.9327 13.2432 19.7859 13.3307C19.6392 13.4186 19.4407 13.4661 19.191 13.4722C18.9858 13.4689 18.805 13.4115 18.65 13.2991C18.4951 13.1873 18.3731 13.0403 18.2842 12.8592C18.1947 12.6782 18.1465 12.4827 18.1383 12.2727L20.3302 12.2727ZM24 12.0598C24.0005 11.7567 23.9466 11.4677 23.8374 11.1936C23.7283 10.9196 23.561 10.6948 23.3357 10.52C23.1104 10.3449 22.8235 10.2545 22.4753 10.2488C22.1295 10.2545 21.8434 10.3449 21.6182 10.52C21.3924 10.6948 21.2251 10.9196 21.115 11.1936C21.005 11.4677 20.95 11.7567 20.9505 12.0598C20.9505 12.3972 21.0065 12.7018 21.1194 12.974C21.2317 13.2461 21.4011 13.4627 21.6267 13.6238C21.8526 13.7851 22.1356 13.8673 22.4753 13.8711C22.8148 13.8673 23.098 13.7851 23.3236 13.6238C23.5495 13.4627 23.7187 13.2461 23.8312 12.974C23.9441 12.7018 24.0005 12.3972 24 12.0598M21.4689 12.0598C21.4675 11.839 21.4996 11.6214 21.5642 11.4064C21.6288 11.192 21.7348 11.0131 21.8827 10.8701C22.0305 10.7273 22.2281 10.6532 22.4753 10.6474C22.7225 10.6532 22.92 10.7273 23.0679 10.8701C23.2157 11.0131 23.3219 11.192 23.3864 11.4064C23.4514 11.6214 23.4829 11.839 23.4816 12.0598C23.4829 12.2809 23.4514 12.499 23.3864 12.7132C23.3219 12.928 23.2157 13.1068 23.0679 13.2498C22.92 13.3929 22.7225 13.4669 22.4753 13.4722C22.2281 13.4669 22.0305 13.3929 21.8827 13.2498C21.7348 13.1068 21.6288 12.928 21.5642 12.7132C21.4996 12.499 21.4675 12.2809 21.4689 12.0598" fill="#8c9096"/></svg>

<svg viewBox="0 0 24 24" xmlns="http://www.w3.org/2000/svg"><path d="M.18 12.166c-.046.255-.086.496-.123.721a4.134 4.134 0 0 0-.057.471.534.534 0 0 0 .133.347c.088.104.212.16.373.166.235-.007.394-.08.475-.219.081-.139.131-.303.15-.493l.32-2.105h.013l.727 2.331c.05.172.122.296.214.373a.564.564 0 0 0 .379.113.563.563 0 0 0 .378-.113c.092-.077.164-.201.215-.373l.726-2.33h.013l.32 2.104c.019.19.069.354.15.493.082.14.24.212.476.22a.485.485 0 0 0 .372-.167.535.535 0 0 0 .134-.347 4.22 4.22 0 0 0-.058-.47 41.705 41.705 0 0 0-.122-.722L4.962 9.73c-.057-.276-.154-.46-.292-.552a.686.686 0 0 0-.42-.127.689.689 0 0 0-.421.112.891.891 0 0 0-.269.372 6.752 6.752 0 0 0-.243.681l-.527 1.632h-.013l-.526-1.632a6.724 6.724 0 0 0-.244-.68.89.89 0 0 0-.268-.373.689.689 0 0 0-.42-.112.689.689 0 0 0-.422.127c-.138.092-.235.276-.291.552L.18 12.167Zm6.134 2.105c-.06.132-.104.24-.132.321a.783.783 0 0 0-.042.252.48.48 0 0 0 .117.298c.08.103.212.16.396.168.174-.004.298-.051.373-.144.075-.093.14-.209.193-.349l1.539-3.59c.028-.061.056-.132.083-.213a.823.823 0 0 0 .043-.239.522.522 0 0 0-.146-.383.537.537 0 0 0-.387-.143.435.435 0 0 0-.34.163c-.087.105-.162.24-.226.403l-.579 1.412-.613-1.585a.636.636 0 0 0-.209-.294.528.528 0 0 0-.323-.1.53.53 0 0 0-.35.129.465.465 0 0 0-.156.358.91.91 0 0 0 .065.263c.041.113.093.241.154.383l.886 2.11-.346.78Z" fill="#f25923"/><path d="M10.863 13.079h-.013l-1.306-3.83a.326.326 0 0 0-.086-.147.213.213 0 0 0-.147-.052.246.246 0 0 0-.175.063.22.22 0 0 0-.065.163c0 .026.008.066.022.12.015.053.039.124.072.213l1.405 3.969c.022.07.054.136.098.197a.232.232 0 0 0 .376 0 .68.68 0 0 0 .098-.197l1.405-3.969c.034-.089.057-.16.072-.214a.481.481 0 0 0 .022-.119.22.22 0 0 0-.065-.163.246.246 0 0 0-.175-.063.212.212 0 0 0-.146.052.325.325 0 0 0-.087.147l-1.305 3.83Zm2.062-3.703a.326.326 0 1 0 .652 0 .326.326 0 0 0-.652 0m.565 1.18c0-.101-.021-.177-.062-.229a.214.214 0 0 0-.177-.078.213.213 0 0 0-.177.078.363.363 0 0 0-.063.228v3.01c0 .1.022.176.063.228.04.052.1.078.177.078a.215.215 0 0 0 .177-.078.366.366 0 0 0 .062-.228v-3.01Zm1.081 1.504c0-.221.033-.439.1-.654.067-.214.175-.393.323-.536a.837.837 0 0 1 .584-.223c.247.006.444.08.59.223.147.143.252.322.315.536.065.215.095.433.094.654.001.22-.03.439-.094.653a1.217 1.217 0 0 1-.315.537c-.146.143-.343.217-.59.222-.248-.005-.445-.08-.593-.222a1.22 1.22 0 0 1-.318-.537 2.188 2.188 0 0 1-.096-.653m2.006-1.286h-.02a1.42 1.42 0 0 0-.444-.395 1.131 1.131 0 0 0-.549-.13c-.341.005-.624.096-.848.271-.223.175-.39.4-.5.674-.109.274-.164.563-.163.866 0 .337.056.642.168.914.113.272.282.489.508.65.226.161.509.243.849.247.208 0 .396-.044.564-.133.168-.088.306-.219.415-.392h.02v.22c0 .1.021.175.062.227.042.052.1.078.177.078a.215.215 0 0 0 .177-.078c.041-.051.062-.127.062-.227v-4.57c0-.1-.02-.176-.062-.228a.213.213 0 0 0-.177-.078.213.213 0 0 0-.177.078.366.366 0 0 0-.062.228v1.778Zm1.561 1.1c.007-.202.049-.396.125-.582a1.15 1.15 0 0 1 .333-.458.853.853 0 0 1 .542-.186.854.854 0 0 1 .542.186c.146.12.257.273.333.458.076.186.117.38.124.582h-1.999Zm2.192.399c.139-.005.229-.037.27-.1a.306.306 0 0 0 .056-.193c0-.302-.057-.584-.17-.845a1.507 1.507 0 0 0-.505-.636c-.224-.162-.503-.245-.837-.25-.333.005-.613.096-.84.271-.225.175-.396.4-.511.674a2.214 2.214 0 0 0-.173.866c-.002.303.053.592.164.866.11.275.284.499.52.674.238.175.544.265.92.271.277-.005.52-.05.725-.137.206-.087.366-.185.48-.296.114-.11.172-.203.174-.28-.001-.09-.022-.153-.063-.185a.241.241 0 0 0-.163-.047c-.072.007-.152.054-.24.142a1.78 1.78 0 0 1-.351.263c-.147.088-.345.135-.595.141a.924.924 0 0 1-.541-.173 1.165 1.165 0 0 1-.366-.44 1.433 1.433 0 0 1-.146-.586h2.192ZM24 12.06c0-.303-.053-.592-.163-.866a1.57 1.57 0 0 0-.501-.674c-.226-.175-.512-.265-.86-.271-.346.005-.633.096-.858.271-.226.175-.393.4-.503.674-.11.274-.165.563-.164.866 0 .337.055.642.168.914.113.272.282.489.508.65.226.161.509.243.848.247.34-.004.623-.086.849-.247.225-.161.395-.378.507-.65.113-.272.17-.577.169-.914m-2.531 0a2.21 2.21 0 0 1 .095-.654 1.22 1.22 0 0 1 .319-.536c.148-.143.345-.217.592-.223.247.006.445.08.593.223.148.143.254.322.318.536a2.2 2.2 0 0 1 .096.654c0 .22-.03.439-.096.653-.064.215-.17.394-.318.537-.148.143-.346.217-.593.222-.247-.005-.445-.08-.592-.222a1.218 1.218 0 0 1-.319-.537 2.204 2.204 0 0 1-.095-.653" fill="#8c9096"/></svg>
